public/cloud-icons/azure/management/policy.svg

<?xml version="1.0" encoding="UTF-8" standalone="no"?>
<!-- Generated by Microsoft Visio, SVG Export Policy.svg Page-1 -->

<svg
   xmlns:dc="http://purl.org/dc/elements/1.1/"
   xmlns:cc="http://creativecommons.org/ns#"
   xmlns:rdf="http://www.w3.org/1999/02/22-rdf-syntax-ns#"
   xmlns:svg="http://www.w3.org/2000/svg"
   xmlns="http://www.w3.org/2000/svg"
   xmlns:sodipodi="http://sodipodi.sourceforge.net/DTD/sodipodi-0.dtd"
   xmlns:inkscape="http://www.inkscape.org/namespaces/inkscape"
   width="0.74797034in"
   height="0.7855956in"
   viewBox="0 0 53.853618 56.563084"
   xml:space="preserve"
   class="st6"
   version="1.1"
   id="svg68"
   sodipodi:docname="Policy.svg"
   style="font-size:12px;overflow:visible;color-interpolation-filters:sRGB;fill:none;fill-rule:evenodd;stroke-linecap:square;stroke-miterlimit:3"
   inkscape:version="0.92.5 (2060ec1f9f, 2020-04-08)"><metadata
   id="metadata72"><rdf:RDF><cc:Work
       rdf:about=""><dc:format>image/svg+xml</dc:format><dc:type
         rdf:resource="http://purl.org/dc/dcmitype/StillImage" /></cc:Work></rdf:RDF></metadata><sodipodi:namedview
   pagecolor="#ffffff"
   bordercolor="#666666"
   borderopacity="1"
   objecttolerance="10"
   gridtolerance="10"
   guidetolerance="10"
   inkscape:pageopacity="0"
   inkscape:pageshadow="2"
   inkscape:window-width="640"
   inkscape:window-height="480"
   id="namedview70"
   showgrid="false"
   inkscape:zoom="1.4208131"
   inkscape:cx="35.899523"
   inkscape:cy="37.695188"
   inkscape:window-x="0"
   inkscape:window-y="0"
   inkscape:window-maximized="0"
   inkscape:current-layer="svg68" />
	<style
   type="text/css"
   id="style2">
	<![CDATA[
		.st1 {fill:url(#grad0-5);stroke:none;stroke-linecap:butt;stroke-width:34}
		.st2 {fill:#32bedd;stroke:none;stroke-linecap:butt;stroke-width:34}
		.st3 {fill:#50e6ff;stroke:none;stroke-linecap:butt;stroke-width:34}
		.st4 {fill:#949494;stroke:none;stroke-linecap:butt;stroke-width:34}
		.st5 {fill:#b3b3b3;stroke:none;stroke-linecap:butt;stroke-width:34}
		.st6 {fill:none;fill-rule:evenodd;font-size:12px;overflow:visible;stroke-linecap:square;stroke-miterlimit:3}
	]]>
	</style>

	<defs
   id="Patterns_And_Gradients">
		<linearGradient
   id="grad0-5"
   x1="0"
   y1="107.51211"
   x2="17.44268"
   y2="107.51211"
   gradientTransform="scale(1.0030328,0.99697637)"
   gradientUnits="userSpaceOnUse">
			<stop
   offset="0"
   stop-color="#198ab3"
   stop-opacity="1"
   id="stop4" />
			<stop
   offset="0.16"
   stop-color="#1f9ac2"
   stop-opacity="1"
   id="stop6" />
			<stop
   offset="0.5"
   stop-color="#29bade"
   stop-opacity="1"
   id="stop8" />
			<stop
   offset="0.8"
   stop-color="#30cdef"
   stop-opacity="1"
   id="stop10" />
			<stop
   offset="1"
   stop-color="#32d4f5"
   stop-opacity="1"
   id="stop12" />
		</linearGradient>
	</defs>
	<g
   id="g66"
   transform="translate(-34.004756,-33.996909)">
		<title
   id="title16">Page-1</title>
		<g
   id="group13168-1"
   transform="translate(34,-34.0157)">
			<title
   id="title18">Policy.13168</title>
			<g
   id="shape13169-2"
   transform="translate(16.3437,-20.0474)">
				<title
   id="title20">ellipse17</title>
				<ellipse
   cx="8.7477903"
   cy="115.882"
   rx="8.7477903"
   ry="8.6949701"
   class="st1"
   id="ellipse22"
   style="fill:url(#grad0-5);stroke:none;stroke-width:34;stroke-linecap:butt" />
			</g>
			<g
   id="shape13170-6"
   transform="translate(45.3124,-38.0704)">
				<title
   id="title25">ellipse19</title>
				<ellipse
   cx="4.2729602"
   cy="120.313"
   rx="4.2729602"
   ry="4.2642002"
   class="st2"
   id="ellipse27"
   style="fill:#32bedd;stroke:none;stroke-width:34;stroke-linecap:butt" />
			</g>
			<g
   id="shape13171-8"
   transform="translate(45.3124,-24.1451)">
				<title
   id="title30">ellipse21</title>
				<ellipse
   cx="4.2729602"
   cy="120.313"
   rx="4.2729602"
   ry="4.2642002"
   class="st2"
   id="ellipse32"
   style="fill:#32bedd;stroke:none;stroke-width:34;stroke-linecap:butt" />
			</g>
			<g
   id="shape13172-10"
   transform="translate(45.3124,-10.2531)">
				<title
   id="title35">ellipse23</title>
				<ellipse
   cx="4.2729602"
   cy="120.313"
   rx="4.2729602"
   ry="4.2642002"
   class="st2"
   id="ellipse37"
   style="fill:#32bedd;stroke:none;stroke-width:34;stroke-linecap:butt" />
			</g>
			<g
   id="shape13173-12"
   transform="translate(35.5552,-30.9411)">
				<title
   id="title40">ellipse25</title>
				<ellipse
   cx="4.2729602"
   cy="120.313"
   rx="4.2729602"
   ry="4.2642002"
   class="st3"
   id="ellipse42"
   style="fill:#50e6ff;stroke:none;stroke-width:34;stroke-linecap:butt" />
			</g>
			<g
   id="shape13174-14"
   transform="translate(35.5552,-17.0159)">
				<title
   id="title45">ellipse27</title>
				<ellipse
   cx="4.2729602"
   cy="120.313"
   rx="4.2729602"
   ry="4.2642002"
   class="st3"
   id="ellipse47"
   style="fill:#50e6ff;stroke:none;stroke-width:34;stroke-linecap:butt" />
			</g>
			<g
   id="shape13175-16"
   transform="translate(0.0257357,-39.6361)">
				<title
   id="title50">path29</title>
				<path
   d="m 4.74,124.58 a 0.807488,0.799538 0 0 1 0.302808,-0.26651 L 24.63,113.02 c 0.27,0 16.82,9.26 16.82,9.26 a 0.807488,0.799538 -180 0 0 1.21123,-0.6996 L 42.66,117.95 a 0.807488,0.799538 -180 0 0 -0.403744,-0.69959 C 42.26,117.25 24.9,107.52 24.66,107.65 L 0.37,121.45 0,121.71 Z"
   class="st4"
   id="path52"
   inkscape:connector-curvature="0"
   style="fill:#949494;stroke:none;stroke-width:34;stroke-linecap:butt" />
			</g>
			<g
   id="shape13176-18"
   transform="translate(25.0915)">
				<title
   id="title55">path31</title>
				<path
   d="m 16.32,110.13 -15.95,9.09 a 1.17759,1.16599 0 0 1 -0.37,0 v 5.33 a 0.672907,0.666281 -180 0 0 0.370099,0 L 17.19,115.02 a 0.807488,0.799538 -180 0 0 0.403744,-0.66628 L 17.6,110.83 a 0.807488,0.799538 -180 0 0 -1.27852,-0.6996 z"
   class="st4"
   id="path57"
   inkscape:connector-curvature="0"
   style="fill:#949494;stroke:none;stroke-width:34;stroke-linecap:butt" />
			</g>
			<g
   id="shape13177-20"
   transform="translate(0,-3.00345e-4)">
				<title
   id="title60">path33</title>
				<path
   d="m 25.09,119.32 a 1.04301,1.03274 0 0 1 -0.44,0 L 5.07,107.89 A 0.740197,0.732909 0 0 1 4.666256,107.22372 L 4.67,85.34 a 0.908424,0.89948 0 0 1 0,-0.399769 L 0.03,82.08 a 0.942069,0.932794 -180 0 0 0,0.433083 V 110.06 a 0.807488,0.799538 -180 0 0 0.370099,0.6996 L 24.69,124.55 a 0.807488,0.799538 -180 0 0 0.403744,0 z"
   class="st5"
   id="path62"
   inkscape:connector-curvature="0"
   style="fill:#b3b3b3;stroke:none;stroke-width:34;stroke-linecap:butt" />
			</g>
		</g>
	</g>
</svg>

<svg xmlns="http://www.w3.org/2000/svg" xml:space="preserve" width="71.805" height="75.417" style="font-size:12px;overflow:visible;color-interpolation-filters:sRGB;fill-rule:evenodd;stroke-linecap:square;stroke-miterlimit:3" viewBox="0 0 53.854 56.563"><defs><linearGradient id="a" x1="0" x2="17.443" y1="107.512" y2="107.512" gradientTransform="scale(1.00303 .99698)" gradientUnits="userSpaceOnUse"><stop offset="0" stop-color="#198ab3"/><stop offset=".16" stop-color="#1f9ac2"/><stop offset=".5" stop-color="#29bade"/><stop offset=".8" stop-color="#30cdef"/><stop offset="1" stop-color="#32d4f5"/></linearGradient></defs><g transform="translate(-34.005 -33.997)"><title>Page-1</title><g transform="translate(34 -34.016)"><title>Policy.13168</title><g transform="translate(16.344 -20.047)"><title>ellipse17</title><ellipse cx="8.748" cy="115.882" rx="8.748" ry="8.695" style="fill:url(#a);stroke:none;stroke-width:34;stroke-linecap:butt"/></g><g transform="translate(45.312 -38.07)"><title>ellipse19</title><ellipse cx="4.273" cy="120.313" rx="4.273" ry="4.264" style="fill:#32bedd;stroke:none;stroke-width:34;stroke-linecap:butt"/></g><g transform="translate(45.312 -24.145)"><title>ellipse21</title><ellipse cx="4.273" cy="120.313" rx="4.273" ry="4.264" style="fill:#32bedd;stroke:none;stroke-width:34;stroke-linecap:butt"/></g><g transform="translate(45.312 -10.253)"><title>ellipse23</title><ellipse cx="4.273" cy="120.313" rx="4.273" ry="4.264" style="fill:#32bedd;stroke:none;stroke-width:34;stroke-linecap:butt"/></g><g transform="translate(35.555 -30.941)"><title>ellipse25</title><ellipse cx="4.273" cy="120.313" rx="4.273" ry="4.264" style="fill:#50e6ff;stroke:none;stroke-width:34;stroke-linecap:butt"/></g><g transform="translate(35.555 -17.016)"><title>ellipse27</title><ellipse cx="4.273" cy="120.313" rx="4.273" ry="4.264" style="fill:#50e6ff;stroke:none;stroke-width:34;stroke-linecap:butt"/></g><g transform="translate(.026 -39.636)"><title>path29</title><path d="M4.74 124.58a.807.8 0 0 1 .303-.267L24.63 113.02c.27 0 16.82 9.26 16.82 9.26a.807.8-180 0 0 1.211-.7l-.001-3.63a.807.8-180 0 0-.404-.7c.004 0-17.356-9.73-17.596-9.6L.37 121.45l-.37.26Z" style="fill:#949494;stroke:none;stroke-width:34;stroke-linecap:butt"/></g><g transform="translate(25.091)"><title>path31</title><path d="M16.32 110.13.37 119.22a1.178 1.166 0 0 1-.37 0v5.33a.673.666-180 0 0 .37 0l16.82-9.53a.807.8-180 0 0 .404-.666l.006-3.524a.807.8-180 0 0-1.279-.7z" style="fill:#949494;stroke:none;stroke-width:34;stroke-linecap:butt"/></g><title>path33</title><path d="M25.09 119.32a1.043 1.033 0 0 1-.44 0L5.07 107.89a.74.733 0 0 1-.404-.666L4.67 85.34a.908.9 0 0 1 0-.4L.03 82.08a.942.933-180 0 0 0 .433v27.547a.807.8-180 0 0 .37.7l24.29 13.79a.807.8-180 0 0 .404 0z" style="fill:#b3b3b3;stroke:none;stroke-width:34;stroke-linecap:butt"/></g></g></svg>
